site/src/assets/images/research/consensus-verification/gradient-light.drawio.svg

<svg xmlns="http://www.w3.org/2000/svg" xmlns:xlink="http://www.w3.org/1999/xlink" viewBox="-.5 -.5 601 179">
    <rect width="600" height="80" y="97" fill="none" stroke="#000" pointer-events="all" rx="12" ry="12" />
    <path fill="none" d="M20 122h60v30H20z" pointer-events="all" />
    <switch transform="translate(-.5 -.5)">
        <foreignObject width="100%" height="100%" pointer-events="none"
            requiredFeatures="http://www.w3.org/TR/SVG11/feature#Extensibility"
            style="overflow:visible;text-align:left">
            <div xmlns="http://www.w3.org/1999/xhtml"
                style="display:flex;align-items:unsafe center;justify-content:unsafe center;width:58px;height:1px;padding-top:137px;margin-left:21px">
                <div data-drawio-colors="color: rgb(0, 0, 0);"
                    style="box-sizing:border-box;font-size:0;text-align:center">
                    <div
                        style="display:inline-block;font-size:12px;font-family:Helvetica;color:#000;line-height:1.2;pointer-events:all;white-space:normal;overflow-wrap:normal">
                        Centralized
                    </div>
                </div>
            </div>
        </foreignObject>
        <text x="50" y="141" font-family="Helvetica" font-size="12" text-anchor="middle">
            Centralized
        </text>
    </switch>
    <path fill="none" d="M520 122h60v30h-60z" pointer-events="all" />
    <switch transform="translate(-.5 -.5)">
        <foreignObject width="100%" height="100%" pointer-events="none"
            requiredFeatures="http://www.w3.org/TR/SVG11/feature#Extensibility"
            style="overflow:visible;text-align:left">
            <div xmlns="http://www.w3.org/1999/xhtml"
                style="display:flex;align-items:unsafe center;justify-content:unsafe center;width:58px;height:1px;padding-top:137px;margin-left:521px">
                <div data-drawio-colors="color: rgb(0, 0, 0);"
                    style="box-sizing:border-box;font-size:0;text-align:center">
                    <div
                        style="display:inline-block;font-size:12px;font-family:Helvetica;color:#000;line-height:1.2;pointer-events:all;white-space:normal;overflow-wrap:normal">
                        Decentralized
                    </div>
                </div>
            </div>
        </foreignObject>
        <text x="550" y="141" font-family="Helvetica" font-size="12" text-anchor="middle">
            Decentrali...
        </text>
    </switch>
    <rect width="80" height="60" x="100" y="-.04" fill="none" stroke="#000" pointer-events="all" rx="9" ry="9" />
    <switch transform="translate(-.5 -.5)">
        <foreignObject width="100%" height="100%" pointer-events="none"
            requiredFeatures="http://www.w3.org/TR/SVG11/feature#Extensibility"
            style="overflow:visible;text-align:left">
            <div xmlns="http://www.w3.org/1999/xhtml"
                style="display:flex;align-items:unsafe center;justify-content:unsafe center;width:78px;height:1px;padding-top:30px;margin-left:101px">
                <div data-drawio-colors="color: rgb(0, 0, 0);"
                    style="box-sizing:border-box;font-size:0;text-align:center">
                    <div
                        style="display:inline-block;font-size:12px;font-family:Helvetica;color:#000;line-height:1.2;pointer-events:all;white-space:normal;overflow-wrap:normal">
                        Multi-Signature
                    </div>
                </div>
            </div>
        </foreignObject>
        <text x="140" y="34" font-family="Helvetica" font-size="12" text-anchor="middle">
            Multi-Signatu...
        </text>
    </switch>
    <path fill="none" stroke="#000" stroke-miterlimit="10" d="M140 59.96v30.67" pointer-events="stroke" />
    <path stroke="#000" stroke-miterlimit="10" d="m140 95.88-3.5-7 3.5 1.75 3.5-1.75Z" pointer-events="all" />
    <rect width="80" height="60" y="-.04" fill="none" stroke="#000" pointer-events="all" rx="9" ry="9" />
    <switch transform="translate(-.5 -.5)">
        <foreignObject width="100%" height="100%" pointer-events="none"
            requiredFeatures="http://www.w3.org/TR/SVG11/feature#Extensibility"
            style="overflow:visible;text-align:left">
            <div xmlns="http://www.w3.org/1999/xhtml"
                style="display:flex;align-items:unsafe center;justify-content:unsafe center;width:78px;height:1px;padding-top:30px;margin-left:1px">
                <div data-drawio-colors="color: rgb(0, 0, 0);"
                    style="box-sizing:border-box;font-size:0;text-align:center">
                    <div
                        style="display:inline-block;font-size:12px;font-family:Helvetica;color:#000;line-height:1.2;pointer-events:all;white-space:normal;overflow-wrap:normal">
                        Single Signature
                    </div>
                </div>
            </div>
        </foreignObject>
        <text x="40" y="34" font-family="Helvetica" font-size="12" text-anchor="middle">
            Single Signat...
        </text>
    </switch>
    <path fill="none" stroke="#000" stroke-miterlimit="10" d="M40 59.96v30.67" pointer-events="stroke" />
    <path stroke="#000" stroke-miterlimit="10" d="m40 95.88-3.5-7 3.5 1.75 3.5-1.75Z" pointer-events="all" />
    <rect width="80" height="60" x="200" y="-.04" fill="none" stroke="#000" pointer-events="all" rx="9" ry="9" />
    <switch transform="translate(-.5 -.5)">
        <foreignObject width="100%" height="100%" pointer-events="none"
            requiredFeatures="http://www.w3.org/TR/SVG11/feature#Extensibility"
            style="overflow:visible;text-align:left">
            <div xmlns="http://www.w3.org/1999/xhtml"
                style="display:flex;align-items:unsafe center;justify-content:unsafe center;width:78px;height:1px;padding-top:30px;margin-left:201px">
                <div data-drawio-colors="color: rgb(0, 0, 0);"
                    style="box-sizing:border-box;font-size:0;text-align:center">
                    <div
                        style="display:inline-block;font-size:12px;font-family:Helvetica;color:#000;line-height:1.2;pointer-events:all;white-space:normal;overflow-wrap:normal">
                        MPC
                    </div>
                </div>
            </div>
        </foreignObject>
        <text x="240" y="34" font-family="Helvetica" font-size="12" text-anchor="middle">
            MPC
        </text>
    </switch>
    <path fill="none" stroke="#000" stroke-miterlimit="10" d="M240 59.96v30.67" pointer-events="stroke" />
    <path stroke="#000" stroke-miterlimit="10" d="m240 95.88-3.5-7 3.5 1.75 3.5-1.75Z" pointer-events="all" />
    <rect width="80" height="60" x="424" y="-.04" fill="none" stroke="#000" pointer-events="all" rx="9" ry="9" />
    <switch transform="translate(-.5 -.5)">
        <foreignObject width="100%" height="100%" pointer-events="none"
            requiredFeatures="http://www.w3.org/TR/SVG11/feature#Extensibility"
            style="overflow:visible;text-align:left">
            <div xmlns="http://www.w3.org/1999/xhtml"
                style="display:flex;align-items:unsafe center;justify-content:unsafe center;width:78px;height:1px;padding-top:30px;margin-left:425px">
                <div data-drawio-colors="color: rgb(0, 0, 0);"
                    style="box-sizing:border-box;font-size:0;text-align:center">
                    <div
                        style="display:inline-block;font-size:12px;font-family:Helvetica;color:#000;line-height:1.2;pointer-events:all;white-space:normal;overflow-wrap:normal">
                        Consensus Verification
                    </div>
                </div>
            </div>
        </foreignObject>
        <text x="464" y="34" font-family="Helvetica" font-size="12" text-anchor="middle">
            Consensus Ver...
        </text>
    </switch>
    <path fill="none" stroke="#000" stroke-miterlimit="10" d="M464 59.96v30.67" pointer-events="stroke" />
    <path stroke="#000" stroke-miterlimit="10" d="m464 95.88-3.5-7 3.5 1.75 3.5-1.75Z" pointer-events="all" />
    <rect width="80" height="60" x="520" y="-.04" fill="none" stroke="#000" pointer-events="all" rx="9" ry="9" />
    <switch transform="translate(-.5 -.5)">
        <foreignObject width="100%" height="100%" pointer-events="none"
            requiredFeatures="http://www.w3.org/TR/SVG11/feature#Extensibility"
            style="overflow:visible;text-align:left">
            <div xmlns="http://www.w3.org/1999/xhtml"
                style="display:flex;align-items:unsafe center;justify-content:unsafe center;width:78px;height:1px;padding-top:30px;margin-left:521px">
                <div data-drawio-colors="color: rgb(0, 0, 0);"
                    style="box-sizing:border-box;font-size:0;text-align:center">
                    <div
                        style="display:inline-block;font-size:12px;font-family:Helvetica;color:#000;line-height:1.2;pointer-events:all;white-space:normal;overflow-wrap:normal">
                        State Verification
                    </div>
                </div>
            </div>
        </foreignObject>
        <text x="560" y="34" font-family="Helvetica" font-size="12" text-anchor="middle">
            State Verific...
        </text>
    </switch>
    <path fill="none" stroke="#000" stroke-miterlimit="10" d="M560 59.96v30.67" pointer-events="stroke" />
    <path stroke="#000" stroke-miterlimit="10" d="m560 95.88-3.5-7 3.5 1.75 3.5-1.75Z" pointer-events="all" />
    <switch>
        <a xlink:href="https://www.diagrams.net/doc/faq/svg-export-text-problems" target="_blank"
            transform="translate(0 -5)">
            <text x="50%" y="100%" font-size="10" text-anchor="middle">
                Text is not SVG - cannot display
            </text>
        </a>
    </switch>
</svg>

<svg host="65bd71144e" xmlns="http://www.w3.org/2000/svg" xmlns:xlink="http://www.w3.org/1999/xlink" version="1.1" width="601px" height="179px" viewBox="-0.5 -0.5 601 179" content="&lt;mxfile&gt;&lt;diagram id=&quot;E2demw0WxWMLNoXnIluc&quot; name=&quot;Page-1&quot;&gt;7VhNb6MwFPw1OTYCHEM4NrTbvVSKFGk/jha8gCUHR8Y0yf76NcEOOKZqd5W0bLscIt7Yz9jzZnDwBCWb/YMg2+KRZ8AmgZftJ+huEgQ4xuq3AQ4tMPOiFsgFzVrI74AV/QUa9DRa0wwqq6PknEm6tcGUlyWk0sKIEHxnd1tzZj91S3JwgFVKmIt+p5ksWnQeRB3+FWhemCf7Ydy2bIjprFdSFSTjux6E7icoEZzL9m6zT4A13Ble2rwvz7SeJiaglK9JCNqEJ8JqvTY9L3kwixW8LjNo+vsTtNgVVMJqS9Kmdaeqq7BCbphuXlPGEs64UHHJS9Vp4U5Jz/IJhIR9D9JTfAC+ASkOqotunWu2tFz8UMe7jvzQ01jRI97kEV3v/DRyR4m60awMM4QchhK1EEGYUmXmkKUWJF9kROXmpQpTNRAofNEwQZW8bnXDhmZZM+Ig2109vMuw63tn9M7xAL0uu+gC7M4cdu8g/WD8hu/IL3b4fazVe/JmpYggshYwRrv7Z34Pg2kcOpTNBygLL0BZ+PIrEcrsttlGGo0xUlU0tWmBPZU/GgFNsY5+9lru9lpbx+BgAiX6Q5vkB9gATd6NN/VQZJAu+xhZ6UsQVK230fwR/JPyVLwWKViqgczaBt169aqBB6phMAGMSPpkb55DJdJPWHKqJneSA0K2HALc6cGM0s5eJ/b3u7OxThuv8SKOp3H/iuxxJRE5SGfco4ZORLxKVpEjqxUtc6WowBu1GYe86HWX/2a+nP/3ZTQqXwaDvuxpY/Z3HvXPPXqunsuZMna3x2UyRheOx4bmG+wz+zAelQ9nV/Ihejsf+r4jqoSXFZRVXSn4m6rbWv2Bl5SXY3QnNhS/vztf8UH/0d1pxDQSe4bYFsel7Iln9rjXtKd7CLKSRMI/YM3zj+93tKZ71vH5rIlGZc0IX2fnDGfX2jlV2B0Ot927E3Z0/xs=&lt;/diagram&gt;&lt;/mxfile&gt;">
    <defs/>
    <g>
        <rect x="0" y="97" width="600" height="80" rx="12" ry="12" fill="none" stroke="rgb(0, 0, 0)" pointer-events="all"/>
        <rect x="20" y="122" width="60" height="30" fill="none" stroke="none" pointer-events="all"/>
        <g transform="translate(-0.5 -0.5)">
            <switch>
                <foreignObject pointer-events="none" width="100%" height="100%" requiredFeatures="http://www.w3.org/TR/SVG11/feature#Extensibility" style="overflow: visible; text-align: left;">
                    <div xmlns="http://www.w3.org/1999/xhtml" style="display: flex; align-items: unsafe center; justify-content: unsafe center; width: 58px; height: 1px; padding-top: 137px; margin-left: 21px;">
                        <div data-drawio-colors="color: rgb(0, 0, 0); " style="box-sizing: border-box; font-size: 0px; text-align: center;">
                            <div style="display: inline-block; font-size: 12px; font-family: Helvetica; color: rgb(0, 0, 0); line-height: 1.2; pointer-events: all; white-space: normal; overflow-wrap: normal;">
                                Centralized
                            </div>
                        </div>
                    </div>
                </foreignObject>
                <text x="50" y="141" fill="rgb(0, 0, 0)" font-family="Helvetica" font-size="12px" text-anchor="middle">
                    Centralized
                </text>
            </switch>
        </g>
        <rect x="520" y="122" width="60" height="30" fill="none" stroke="none" pointer-events="all"/>
        <g transform="translate(-0.5 -0.5)">
            <switch>
                <foreignObject pointer-events="none" width="100%" height="100%" requiredFeatures="http://www.w3.org/TR/SVG11/feature#Extensibility" style="overflow: visible; text-align: left;">
                    <div xmlns="http://www.w3.org/1999/xhtml" style="display: flex; align-items: unsafe center; justify-content: unsafe center; width: 58px; height: 1px; padding-top: 137px; margin-left: 521px;">
                        <div data-drawio-colors="color: rgb(0, 0, 0); " style="box-sizing: border-box; font-size: 0px; text-align: center;">
                            <div style="display: inline-block; font-size: 12px; font-family: Helvetica; color: rgb(0, 0, 0); line-height: 1.2; pointer-events: all; white-space: normal; overflow-wrap: normal;">
                                Decentralized
                            </div>
                        </div>
                    </div>
                </foreignObject>
                <text x="550" y="141" fill="rgb(0, 0, 0)" font-family="Helvetica" font-size="12px" text-anchor="middle">
                    Decentrali...
                </text>
            </switch>
        </g>
        <rect x="100" y="-0.04" width="80" height="60" rx="9" ry="9" fill="none" stroke="rgb(0, 0, 0)" pointer-events="all"/>
        <g transform="translate(-0.5 -0.5)">
            <switch>
                <foreignObject pointer-events="none" width="100%" height="100%" requiredFeatures="http://www.w3.org/TR/SVG11/feature#Extensibility" style="overflow: visible; text-align: left;">
                    <div xmlns="http://www.w3.org/1999/xhtml" style="display: flex; align-items: unsafe center; justify-content: unsafe center; width: 78px; height: 1px; padding-top: 30px; margin-left: 101px;">
                        <div data-drawio-colors="color: rgb(0, 0, 0); " style="box-sizing: border-box; font-size: 0px; text-align: center;">
                            <div style="display: inline-block; font-size: 12px; font-family: Helvetica; color: rgb(0, 0, 0); line-height: 1.2; pointer-events: all; white-space: normal; overflow-wrap: normal;">
                                Multi-Signature
                            </div>
                        </div>
                    </div>
                </foreignObject>
                <text x="140" y="34" fill="rgb(0, 0, 0)" font-family="Helvetica" font-size="12px" text-anchor="middle">
                    Multi-Signatu...
                </text>
            </switch>
        </g>
        <path d="M 140 59.96 L 140 90.63" fill="none" stroke="rgb(0, 0, 0)" stroke-miterlimit="10" pointer-events="stroke"/>
        <path d="M 140 95.88 L 136.5 88.88 L 140 90.63 L 143.5 88.88 Z" fill="rgb(0, 0, 0)" stroke="rgb(0, 0, 0)" stroke-miterlimit="10" pointer-events="all"/>
        <rect x="0" y="-0.04" width="80" height="60" rx="9" ry="9" fill="none" stroke="rgb(0, 0, 0)" pointer-events="all"/>
        <g transform="translate(-0.5 -0.5)">
            <switch>
                <foreignObject pointer-events="none" width="100%" height="100%" requiredFeatures="http://www.w3.org/TR/SVG11/feature#Extensibility" style="overflow: visible; text-align: left;">
                    <div xmlns="http://www.w3.org/1999/xhtml" style="display: flex; align-items: unsafe center; justify-content: unsafe center; width: 78px; height: 1px; padding-top: 30px; margin-left: 1px;">
                        <div data-drawio-colors="color: rgb(0, 0, 0); " style="box-sizing: border-box; font-size: 0px; text-align: center;">
                            <div style="display: inline-block; font-size: 12px; font-family: Helvetica; color: rgb(0, 0, 0); line-height: 1.2; pointer-events: all; white-space: normal; overflow-wrap: normal;">
                                Single Signature
                            </div>
                        </div>
                    </div>
                </foreignObject>
                <text x="40" y="34" fill="rgb(0, 0, 0)" font-family="Helvetica" font-size="12px" text-anchor="middle">
                    Single Signat...
                </text>
            </switch>
        </g>
        <path d="M 40 59.96 L 40 90.63" fill="none" stroke="rgb(0, 0, 0)" stroke-miterlimit="10" pointer-events="stroke"/>
        <path d="M 40 95.88 L 36.5 88.88 L 40 90.63 L 43.5 88.88 Z" fill="rgb(0, 0, 0)" stroke="rgb(0, 0, 0)" stroke-miterlimit="10" pointer-events="all"/>
        <rect x="200" y="-0.04" width="80" height="60" rx="9" ry="9" fill="none" stroke="rgb(0, 0, 0)" pointer-events="all"/>
        <g transform="translate(-0.5 -0.5)">
            <switch>
                <foreignObject pointer-events="none" width="100%" height="100%" requiredFeatures="http://www.w3.org/TR/SVG11/feature#Extensibility" style="overflow: visible; text-align: left;">
                    <div xmlns="http://www.w3.org/1999/xhtml" style="display: flex; align-items: unsafe center; justify-content: unsafe center; width: 78px; height: 1px; padding-top: 30px; margin-left: 201px;">
                        <div data-drawio-colors="color: rgb(0, 0, 0); " style="box-sizing: border-box; font-size: 0px; text-align: center;">
                            <div style="display: inline-block; font-size: 12px; font-family: Helvetica; color: rgb(0, 0, 0); line-height: 1.2; pointer-events: all; white-space: normal; overflow-wrap: normal;">
                                MPC
                            </div>
                        </div>
                    </div>
                </foreignObject>
                <text x="240" y="34" fill="rgb(0, 0, 0)" font-family="Helvetica" font-size="12px" text-anchor="middle">
                    MPC
                </text>
            </switch>
        </g>
        <path d="M 240 59.96 L 240 90.63" fill="none" stroke="rgb(0, 0, 0)" stroke-miterlimit="10" pointer-events="stroke"/>
        <path d="M 240 95.88 L 236.5 88.88 L 240 90.63 L 243.5 88.88 Z" fill="rgb(0, 0, 0)" stroke="rgb(0, 0, 0)" stroke-miterlimit="10" pointer-events="all"/>
        <rect x="424" y="-0.04" width="80" height="60" rx="9" ry="9" fill="none" stroke="rgb(0, 0, 0)" pointer-events="all"/>
        <g transform="translate(-0.5 -0.5)">
            <switch>
                <foreignObject pointer-events="none" width="100%" height="100%" requiredFeatures="http://www.w3.org/TR/SVG11/feature#Extensibility" style="overflow: visible; text-align: left;">
                    <div xmlns="http://www.w3.org/1999/xhtml" style="display: flex; align-items: unsafe center; justify-content: unsafe center; width: 78px; height: 1px; padding-top: 30px; margin-left: 425px;">
                        <div data-drawio-colors="color: rgb(0, 0, 0); " style="box-sizing: border-box; font-size: 0px; text-align: center;">
                            <div style="display: inline-block; font-size: 12px; font-family: Helvetica; color: rgb(0, 0, 0); line-height: 1.2; pointer-events: all; white-space: normal; overflow-wrap: normal;">
                                Consensus Verification
                            </div>
                        </div>
                    </div>
                </foreignObject>
                <text x="464" y="34" fill="rgb(0, 0, 0)" font-family="Helvetica" font-size="12px" text-anchor="middle">
                    Consensus Ver...
                </text>
            </switch>
        </g>
        <path d="M 464 59.96 L 464 90.63" fill="none" stroke="rgb(0, 0, 0)" stroke-miterlimit="10" pointer-events="stroke"/>
        <path d="M 464 95.88 L 460.5 88.88 L 464 90.63 L 467.5 88.88 Z" fill="rgb(0, 0, 0)" stroke="rgb(0, 0, 0)" stroke-miterlimit="10" pointer-events="all"/>
        <rect x="520" y="-0.04" width="80" height="60" rx="9" ry="9" fill="none" stroke="rgb(0, 0, 0)" pointer-events="all"/>
        <g transform="translate(-0.5 -0.5)">
            <switch>
                <foreignObject pointer-events="none" width="100%" height="100%" requiredFeatures="http://www.w3.org/TR/SVG11/feature#Extensibility" style="overflow: visible; text-align: left;">
                    <div xmlns="http://www.w3.org/1999/xhtml" style="display: flex; align-items: unsafe center; justify-content: unsafe center; width: 78px; height: 1px; padding-top: 30px; margin-left: 521px;">
                        <div data-drawio-colors="color: rgb(0, 0, 0); " style="box-sizing: border-box; font-size: 0px; text-align: center;">
                            <div style="display: inline-block; font-size: 12px; font-family: Helvetica; color: rgb(0, 0, 0); line-height: 1.2; pointer-events: all; white-space: normal; overflow-wrap: normal;">
                                State Verification
                            </div>
                        </div>
                    </div>
                </foreignObject>
                <text x="560" y="34" fill="rgb(0, 0, 0)" font-family="Helvetica" font-size="12px" text-anchor="middle">
                    State Verific...
                </text>
            </switch>
        </g>
        <path d="M 560 59.96 L 560 90.63" fill="none" stroke="rgb(0, 0, 0)" stroke-miterlimit="10" pointer-events="stroke"/>
        <path d="M 560 95.88 L 556.5 88.88 L 560 90.63 L 563.5 88.88 Z" fill="rgb(0, 0, 0)" stroke="rgb(0, 0, 0)" stroke-miterlimit="10" pointer-events="all"/>
    </g>
    <switch>
        <g requiredFeatures="http://www.w3.org/TR/SVG11/feature#Extensibility"/>
        <a transform="translate(0,-5)" xlink:href="https://www.diagrams.net/doc/faq/svg-export-text-problems" target="_blank">
            <text text-anchor="middle" font-size="10px" x="50%" y="100%">
                Text is not SVG - cannot display
            </text>
        </a>
    </switch>
</svg>
